X:2
T:Oberl\"ander Polka GC 5- chords
M:2/4
L:1/16
K:Gmaj%%MIDI gchordon
d2 |: "G"dgB2 BdG2 | "D7"F3A c2e2 | dfA2 ceF2 | "G"G3Bd4 | dgB2 BdG2 | "D7"F3A c2e2 | dfA2 ceF2 |1 "G"G2B2 G2d2 :|2 "G"G2B2 G2z2 || 
|: "D7"d2df A2d2 | "G"d2dg B2d2 | "D7"d3c A2F2 | "G"G2B2D4 | "D7"d2df A2d2 | "G"d2dg B2d2 | "D7"f3e c2F2 | "G"G2B2 G2z2 :: [K:Cmaj] 
"C"G2EG e2c2 | "Dm/F"A2FA f2d2 | "G7"B2GB gfdB | "C"c2e2G4 | G2EG e2c2 | "Dm/F"A2FA f2d2 | "G7"B2GB agB2 | "C"c2e2 c2z2 :| 

